static/assets/img/icons/theme/tools/angle-grinder.svg

<svg height="24" viewBox="0 0 24 24" width="24" xmlns="http://www.w3.org/2000/svg"><g fill="none" fill-rule="evenodd"><path d="m0 0h24v24h-24z" opacity="0"/><g fill="#000"><path d="m14.8890873 14.1109127c-3.0375661 0-5.5-2.4624339-5.5-5.5 0-3.03756612 2.4624339-5.5 5.5-5.5s5.5 2.46243388 5.5 5.5c0 3.0375661-2.4624339 5.5-5.5 5.5zm0-3.5c1.1045695 0 2-.8954305 2-2s-.8954305-2-2-2-2 .8954305-2 2 .8954305 2 2 2zm0-1c.5522847 0 1-.44771525 1-1s-.4477153-1-1-1c-.5522848 0-1 .44771525-1 1s.4477152 1 1 1z" opacity=".3" transform="matrix(.70710678 -.70710678 .70710678 .70710678 -1.727922 13.050252)"/><rect height="6" opacity=".3" rx="3" transform="matrix(.70710678 -.70710678 .70710678 .70710678 -7.884777 10.914214)" width="16" x="1.232233" y="11.974874"/><path d="m16.267767 18.0822059c-3.9939206-.6949055-7.00000005-3.721536-7.00000005-7.3499729 0-3.62843682 3.00607945-6.65506728 7.00000005-7.34997278z" transform="matrix(.70710678 -.70710678 .70710678 .70710678 -3.849242 12.171573)"/></g></g></svg>

<svg width="24px" height="24px" viewBox="0 0 24 24" version="1.1" xmlns="http://www.w3.org/2000/svg" xmlns:xlink="http://www.w3.org/1999/xlink">
    <title>Icon For Angle Grinder</title>
    <g stroke="none" stroke-width="1" fill="none" fill-rule="evenodd">
        <rect opacity="0" x="0" y="0" width="24" height="24"></rect>
        <path d="M14.8890873,14.1109127 C11.8515212,14.1109127 9.3890873,11.6484788 9.3890873,8.6109127 C9.3890873,5.57334658 11.8515212,3.1109127 14.8890873,3.1109127 C17.9266534,3.1109127 20.3890873,5.57334658 20.3890873,8.6109127 C20.3890873,11.6484788 17.9266534,14.1109127 14.8890873,14.1109127 Z M14.8890873,10.6109127 C15.9936568,10.6109127 16.8890873,9.7154822 16.8890873,8.6109127 C16.8890873,7.5063432 15.9936568,6.6109127 14.8890873,6.6109127 C13.7845178,6.6109127 12.8890873,7.5063432 12.8890873,8.6109127 C12.8890873,9.7154822 13.7845178,10.6109127 14.8890873,10.6109127 Z M14.8890873,9.6109127 C15.441372,9.6109127 15.8890873,9.16319745 15.8890873,8.6109127 C15.8890873,8.05862795 15.441372,7.6109127 14.8890873,7.6109127 C14.3368025,7.6109127 13.8890873,8.05862795 13.8890873,8.6109127 C13.8890873,9.16319745 14.3368025,9.6109127 14.8890873,9.6109127 Z" fill="#000000" opacity="0.3" transform="translate(14.889087, 8.610913) rotate(-405.000000) translate(-14.889087, -8.610913) "></path>
        <rect fill="#000000" opacity="0.3" transform="translate(9.232233, 14.974874) rotate(-45.000000) translate(-9.232233, -14.974874) " x="1.23223305" y="11.9748737" width="16" height="6" rx="3"></rect>
        <path d="M16.267767,18.0822059 C12.2738464,17.3873004 9.26776695,14.3606699 9.26776695,10.732233 C9.26776695,7.10379618 12.2738464,4.07716572 16.267767,3.38226022 L16.267767,18.0822059 Z" fill="#000000" transform="translate(12.767767, 10.732233) rotate(-405.000000) translate(-12.767767, -10.732233) "></path>
    </g>
</svg>
